Newaita-dark/.DP/32/skype-status-offline.svg

<svg xmlns="http://www.w3.org/2000/svg" xmlns:xlink="http://www.w3.org/1999/xlink" width="32px" height="32px" viewBox="0 0 32 32" version="1.1">
<g id="surface1">
<path style=" stroke:none;fill-rule:nonzero;fill:rgb(93.333334%,93.333334%,93.333334%);fill-opacity:0.392157;" d="M 10.726562 4.199219 C 7.59375 4.199219 5.070312 6.722656 5.070312 9.855469 C 5.070312 10.804688 5.300781 11.695312 5.707031 12.480469 C 5.296875 13.621094 5.070312 14.855469 5.070312 16.140625 C 5.070312 22.058594 9.835938 26.824219 15.753906 26.824219 C 16.214844 26.824219 16.667969 26.796875 17.117188 26.738281 C 18.101562 27.578125 19.378906 28.082031 20.78125 28.082031 C 23.917969 28.082031 26.441406 25.558594 26.441406 22.425781 C 26.441406 21.480469 26.207031 20.585938 25.800781 19.804688 C 26.214844 18.660156 26.441406 17.429688 26.441406 16.140625 C 26.441406 10.222656 21.675781 5.457031 15.753906 5.457031 C 15.292969 5.457031 14.839844 5.488281 14.394531 5.542969 C 13.40625 4.703125 12.128906 4.199219 10.726562 4.199219 Z M 13.070312 11.996094 C 13.410156 11.996094 13.746094 12.125 14.003906 12.386719 L 15.878906 14.253906 L 17.746094 12.386719 C 18.265625 11.867188 19.101562 11.867188 19.621094 12.386719 C 20.136719 12.902344 20.136719 13.738281 19.621094 14.253906 L 17.746094 16.128906 L 19.621094 17.996094 C 20.136719 18.515625 20.136719 19.351562 19.621094 19.871094 C 19.101562 20.386719 18.265625 20.386719 17.746094 19.871094 L 15.878906 17.996094 L 14.003906 19.871094 C 13.488281 20.386719 12.652344 20.386719 12.136719 19.871094 C 11.617188 19.351562 11.617188 18.515625 12.136719 17.996094 L 14.003906 16.128906 L 12.136719 14.253906 C 11.617188 13.738281 11.617188 12.902344 12.136719 12.386719 C 12.394531 12.125 12.730469 11.996094 13.070312 11.996094 Z M 13.070312 11.996094 "/>
</g>
</svg>

<svg xmlns="http://www.w3.org/2000/svg" width="32pt" height="32pt" viewBox="0 0 32 32"><path d="M10.727 4.2A5.645 5.645 0 0 0 5.07 9.854c0 .95.23 1.84.64 2.625a10.713 10.713 0 0 0-.64 3.66 10.661 10.661 0 0 0 10.684 10.684c.46 0 .918-.027 1.363-.082a5.643 5.643 0 0 0 3.664 1.34 5.642 5.642 0 0 0 5.657-5.656c0-.95-.231-1.84-.637-2.621.414-1.14.637-2.375.637-3.664A10.661 10.661 0 0 0 15.754 5.457c-.461 0-.914.027-1.363.086a5.618 5.618 0 0 0-3.664-1.344zm2.343 7.796c.336 0 .676.129.934.387l1.871 1.87 1.871-1.87a1.325 1.325 0 0 1 1.871 0c.52.52.52 1.355 0 1.87l-1.87 1.872 1.87 1.871c.52.52.52 1.356 0 1.871-.515.52-1.351.52-1.87 0l-1.872-1.87-1.871 1.87c-.516.52-1.352.52-1.871 0a1.325 1.325 0 0 1 0-1.87l1.87-1.872-1.87-1.871a1.325 1.325 0 0 1 0-1.871c.262-.258.597-.387.937-.387zm0 0" fill="#bdbdbd" fill-opacity=".392"/></svg>
